resources/svg/user-3-line.svg

<svg fill="currentColor" viewBox="0 0 24 24" xmlns="http://www.w3.org/2000/svg"><path d="M20 22H18V20C18 18.3431 16.6569 17 15 17H9C7.34315 17 6 18.3431 6 20V22H4V20C4 17.2386 6.23858 15 9 15H15C17.7614 15 20 17.2386 20 20V22ZM12 13C8.68629 13 6 10.3137 6 7C6 3.68629 8.68629 1 12 1C15.3137 1 18 3.68629 18 7C18 10.3137 15.3137 13 12 13ZM12 11C14.2091 11 16 9.20914 16 7C16 4.79086 14.2091 3 12 3C9.79086 3 8 4.79086 8 7C8 9.20914 9.79086 11 12 11Z"/></svg>

<svg xmlns="http://www.w3.org/2000/svg" viewBox="0 0 24 24" fill="currentColor">
    <g>
        <path fill="none" d="M0 0h24v24H0z"/>
        <path d="M20 22h-2v-2a3 3 0 0 0-3-3H9a3 3 0 0 0-3 3v2H4v-2a5 5 0 0 1 5-5h6a5 5 0 0 1 5 5v2zm-8-9a6 6 0 1 1 0-12 6 6 0 0 1 0 12zm0-2a4 4 0 1 0 0-8 4 4 0 0 0 0 8z"/>
    </g>
</svg>
